X:798
T:Filoro #3
C:Joe Buchanan's Scottish Tome - Page 545.2
I:545 2
Z:Carl Allison
R:Slow Air
L:1/4
M:3/4
K:F
A | "F"c3 | "C7"A2 G | "Dm"F3 | "F"A2 B | "G"C2 C | "F"D C "Bb"D | "F"F2 A |
"F"c3 | "C7"A2 G | "Dm"F3 | "F"A2 A | "F"C2 C | "F"D C "Bb"D | "F"F3 | "F"F2 "C7"C |
"Dm"F2 F | "Bb"B2 c | "Bb"d2 d | "F"c2 d | "F"c2 c | "C7"A G "Dm"F | "Gm"B3 | "F"c2 "Fdim"d |
"F"A c2 | "C7"A2 G | "Dm"F3 | "F"A2 B | "F"C2 C | "F"D C "Bb"D | "F"F3 | "F"F2 |]

